svg/sensor_device_alt.svg

<svg width="24" height="24" viewBox="0 0 24 24"  xmlns="http://www.w3.org/2000/svg">
<path d="M6.34999 6.34893L4.92999 4.92893C6.80527 3.05422 9.34835 2.00107 12 2.00107C14.6516 2.00107 17.1947 3.05422 19.07 4.92893L17.65 6.34893C16.1503 4.85283 14.1184 4.01263 12 4.01263C9.88162 4.01263 7.84972 4.85283 6.34999 6.34893Z" />
<path d="M9.17001 9.16893L7.76001 7.75893C8.88501 6.63533 10.41 6.00421 12 6.00421C13.59 6.00421 15.115 6.63533 16.24 7.75893L14.82 9.17893C14.0733 8.42776 13.0592 8.0034 12 7.99893C11.4746 7.99852 10.9542 8.10163 10.4686 8.30239C9.98303 8.50314 9.54176 8.79759 9.17001 9.16893Z" />
<path fill-rule="evenodd" clip-rule="evenodd" d="M18 10.9989H14C14 11.5294 13.7893 12.0381 13.4142 12.4131C13.0391 12.7882 12.5304 12.9989 12 12.9989C11.4696 12.9989 10.9609 12.7882 10.5858 12.4131C10.2107 12.0381 10 11.5294 10 10.9989H6C5.46957 10.9989 4.96086 11.2096 4.58579 11.5847C4.21071 11.9598 4 12.4685 4 12.9989V21.9989H20V12.9989C20 12.4685 19.7893 11.9598 19.4142 11.5847C19.0391 11.2096 18.5304 10.9989 18 10.9989ZM6 17.9989V14.9989H18V17.9989H6Z" />
<path d="M13 10.9989C13 11.5512 12.5523 11.9989 12 11.9989C11.4477 11.9989 11 11.5512 11 10.9989C11 10.4466 11.4477 9.99893 12 9.99893C12.5523 9.99893 13 10.4466 13 10.9989Z" />
</svg>

<svg width="24" height="24" viewBox="0 0 24 24" xmlns="http://www.w3.org/2000/svg"><path d="M6.35 6.349l-1.42-1.42a10 10 0 0 1 14.14 0l-1.42 1.42a8 8 0 0 0-11.3 0z"/><path d="M9.17 9.169l-1.41-1.41a6 6 0 0 1 8.48 0l-1.42 1.42A4 4 0 0 0 12 7.999a4 4 0 0 0-2.83 1.17z"/><path fill-rule="evenodd" clip-rule="evenodd" d="M18 10.999h-4a2 2 0 1 1-4 0H6a2 2 0 0 0-2 2v9h16v-9a2 2 0 0 0-2-2zm-12 7v-3h12v3H6z"/><path d="M13 10.999a1 1 0 1 1-2 0 1 1 0 0 1 2 0z"/></svg>
